X:2
T:2) B\"ohmischer Wird
S:Cathy Goss
O:Germany
N:VVMMMM
M:3/4
I:speed 400
A:Bavaria
K:GMix
M:3/4
G3A Bc|d4d2|\
M:2/2
e2g2 d4| e2g2 d4|\
M:3/4
d3c Ac|B4 G2|\
M:2/2
A2A2 G4|A2A2 G4:|
M:3/4
d3c Bc|B4d2|\
M:2/2
e2g2 d4|e2g2 d4|\
M:3/4
d3c Ac|B4 G2|\
M:2/2
A2A2 G4|A2A2 G4:|
